src/icons/facebook-icon.svg

<svg width="45" height="45" viewBox="0 0 45 45" fill="none" xmlns="http://www.w3.org/2000/svg">
<circle cx="22.5" cy="22.5" r="22.5" fill="#9D74D3"/>
<path d="M17.744 23.5868H19.717V31.7097C19.717 31.8701 19.847 32 20.0074 32H23.3528C23.5132 32 23.6431 31.8701 23.6431 31.7097V23.6251H25.9114C26.0588 23.6251 26.1829 23.5144 26.1998 23.3679L26.5443 20.3775C26.5537 20.2952 26.5277 20.2128 26.4726 20.1511C26.4175 20.0893 26.3387 20.0539 26.2559 20.0539H23.6433V18.1794C23.6433 17.6143 23.9475 17.3277 24.5477 17.3277C24.6332 17.3277 26.2559 17.3277 26.2559 17.3277C26.4163 17.3277 26.5462 17.1977 26.5462 17.0374V14.2925C26.5462 14.1321 26.4163 14.0021 26.2559 14.0021H23.9017C23.8851 14.0013 23.8482 14 23.7939 14C23.3854 14 21.9655 14.0802 20.8439 15.112C19.6012 16.2554 19.774 17.6244 19.8153 17.8618V20.0539H17.7439C17.5836 20.0539 17.4536 20.1838 17.4536 20.3442V23.2964C17.4536 23.4568 17.5836 23.5868 17.744 23.5868Z" fill="white"/>
</svg>

<svg xmlns="http://www.w3.org/2000/svg" width="45" height="45" fill="none"><circle cx="22.5" cy="22.5" r="22.5" fill="#9d74d3"/><path d="M17.744 23.587h1.973v8.123a.29.29 0 0 0 .29.29h3.345a.29.29 0 0 0 .29-.29v-8.085h2.268a.29.29 0 0 0 .288-.257l.345-2.99a.29.29 0 0 0-.288-.324h-2.613v-1.874c0-.565.304-.852.904-.852h1.708a.29.29 0 0 0 .29-.29v-2.745a.29.29 0 0 0-.29-.29h-2.354L23.794 14c-.409 0-1.828.08-2.95 1.112-1.243 1.143-1.07 2.512-1.029 2.75v2.192h-2.071a.29.29 0 0 0-.29.29v2.952a.29.29 0 0 0 .29.29z" fill="#fff"/></svg>
